systematic/svg/dialog-slice.svg

<?xml version="1.0" encoding="UTF-8" standalone="no"?>
<svg
   xmlns:dc="http://purl.org/dc/elements/1.1/"
   xmlns:cc="http://creativecommons.org/ns#"
   xmlns:rdf="http://www.w3.org/1999/02/22-rdf-syntax-ns#"
   xmlns:svg="http://www.w3.org/2000/svg"
   xmlns="http://www.w3.org/2000/svg"
   viewBox="0 0 320 320"
   height="320"
   width="320"
   xml:space="preserve"
   version="1.1"
   id="svg2"><metadata
     id="metadata8"><rdf:RDF><cc:Work
         rdf:about=""><dc:format>image/svg+xml</dc:format><dc:type
           rdf:resource="http://purl.org/dc/dcmitype/StillImage" /></cc:Work></rdf:RDF></metadata><defs
     id="defs6"><clipPath
       id="clipPath16"
       clipPathUnits="userSpaceOnUse"><path
         id="path18"
         d="M 0,256 256,256 256,0 0,0 0,256 Z" /></clipPath><clipPath
       id="clipPath24"
       clipPathUnits="userSpaceOnUse"><path
         id="path26"
         d="m 12,244 232,0 0,-232 -232,0 0,232 z" /></clipPath><clipPath
       id="clipPath40"
       clipPathUnits="userSpaceOnUse"><path
         id="path42"
         d="m 20,236 216,0 0,-216 -216,0 0,216 z" /></clipPath></defs><g
     transform="matrix(1.25,0,0,-1.25,0,320)"
     id="g10"><g
       id="g12"><g
         clip-path="url(#clipPath16)"
         id="g14"><g
           id="g20"><g
             id="g22" /><g
             id="g28"><g
               style="opacity:0.5"
               id="g30"
               clip-path="url(#clipPath24)"><g
                 id="g32"
                 transform="translate(220.5713,244)"><path
                   id="path34"
                   style="fill:#ffffff;fill-opacity:1;fill-rule:nonzero;stroke:none"
                   d="m 0,0 -185.143,0 c -12.919,0 -23.428,-10.51 -23.428,-23.429 l 0,-185.142 c 0,-12.919 10.509,-23.429 23.428,-23.429 L 0,-232 c 12.919,0 23.429,10.51 23.429,23.429 l 0,185.142 C 23.429,-10.51 12.919,0 0,0" /></g></g></g></g><g
           id="g36"><g
             id="g38" /><g
             id="g44"><g
               style="opacity:0.5"
               id="g46"
               clip-path="url(#clipPath40)"><g
                 id="g48"
                 transform="translate(35.4287,236)"><path
                   id="path50"
                   style="fill:#ffffff;fill-opacity:1;fill-rule:nonzero;stroke:none"
                   d="m 0,0 185.143,0 c 8.521,0 15.428,-6.908 15.428,-15.429 l 0,-185.142 c 0,-8.522 -6.907,-15.429 -15.428,-15.429 L 0,-216 c -8.521,0 -15.429,6.907 -15.429,15.429 l 0,185.142 C -15.429,-6.908 -8.521,0 0,0" /></g></g></g></g></g></g></g></svg>

<?xml version="1.0" encoding="UTF-8" standalone="no"?>
<svg
   xmlns:dc="http://purl.org/dc/elements/1.1/"
   xmlns:cc="http://creativecommons.org/ns#"
   xmlns:rdf="http://www.w3.org/1999/02/22-rdf-syntax-ns#"
   xmlns:svg="http://www.w3.org/2000/svg"
   xmlns="http://www.w3.org/2000/svg"
   viewBox="0 0 309.33291 309.33331"
   height="309.33331"
   width="309.33292"
   xml:space="preserve"
   id="svg2"
   version="1.1"><metadata
     id="metadata8"><rdf:RDF><cc:Work
         rdf:about=""><dc:format>image/svg+xml</dc:format><dc:type
           rdf:resource="http://purl.org/dc/dcmitype/StillImage" /></cc:Work></rdf:RDF></metadata><defs
     id="defs6"><clipPath
       id="clipPath18"
       clipPathUnits="userSpaceOnUse"><path
         id="path16"
         d="M 0,256 H 256 V 0 H 0 Z" /></clipPath><clipPath
       id="clipPath26"
       clipPathUnits="userSpaceOnUse"><path
         id="path24"
         d="M 12,244 H 244 V 12 H 12 Z" /></clipPath><clipPath
       id="clipPath42"
       clipPathUnits="userSpaceOnUse"><path
         id="path40"
         d="M 20,236 H 236 V 20 H 20 Z" /></clipPath></defs><g
     transform="matrix(1.3333333,0,0,-1.3333333,-16.0004,325.33333)"
     id="g10"><g
       id="g12"><g
         clip-path="url(#clipPath18)"
         id="g14"><g
           id="g20"><g
             id="g22" /><g
             id="g34"><g
               style="opacity:0.5"
               id="g32"
               clip-path="url(#clipPath26)"><g
                 id="g30"
                 transform="translate(220.5713,244)"><path
                   id="path28"
                   style="fill:#ffffff;fill-opacity:1;fill-rule:nonzero;stroke:none"
                   d="m 0,0 h -185.143 c -12.919,0 -23.428,-10.51 -23.428,-23.429 v -185.142 c 0,-12.919 10.509,-23.429 23.428,-23.429 H 0 c 12.919,0 23.429,10.51 23.429,23.429 V -23.429 C 23.429,-10.51 12.919,0 0,0" /></g></g></g></g><g
           id="g36"><g
             id="g38" /><g
             id="g50"><g
               style="opacity:0.5"
               id="g48"
               clip-path="url(#clipPath42)"><g
                 id="g46"
                 transform="translate(35.4287,236)"><path
                   id="path44"
                   style="fill:#ffffff;fill-opacity:1;fill-rule:nonzero;stroke:none"
                   d="m 0,0 h 185.143 c 8.521,0 15.428,-6.908 15.428,-15.429 v -185.142 c 0,-8.522 -6.907,-15.429 -15.428,-15.429 H 0 c -8.521,0 -15.429,6.907 -15.429,15.429 V -15.429 C -15.429,-6.908 -8.521,0 0,0" /></g></g></g></g></g></g></g></svg>
